img/icons/htl_card-icon.svg

<svg width="73" height="53" viewBox="0 0 73 53" fill="none" xmlns="http://www.w3.org/2000/svg">
<path d="M52.501 11.1445H4.49805C2.01777 11.1445 0 13.1623 0 15.6426V47.6445C0 50.1248 2.01777 52.1426 4.49805 52.1426H52.5008C54.9811 52.1426 56.999 50.1248 56.999 47.6445V15.6426C56.999 13.1623 54.9813 11.1445 52.501 11.1445ZM54.8604 47.6445C54.8604 48.9454 53.8019 50.0039 52.5008 50.0039H4.49805C3.19703 50.0039 2.13867 48.9454 2.13867 47.6445V15.6426C2.13867 14.3416 3.19703 13.2832 4.49805 13.2832H52.5008C53.8019 13.2832 54.8604 14.3416 54.8604 15.6426V47.6445Z" fill="url(#paint0_linear)"/>
<path d="M14.7842 23.717H10.2126C8.36248 23.717 6.85742 25.2222 6.85742 27.0722V29.358C6.85742 31.2081 8.36248 32.7131 10.2126 32.7131H14.7842C16.6343 32.7131 18.1393 31.208 18.1393 29.358V27.0722C18.1393 25.2221 16.6341 23.717 14.7842 23.717ZM11.429 30.5746H10.2126C9.54174 30.5746 8.99609 30.029 8.99609 29.3581V27.0722C8.99609 26.4014 9.54188 25.8557 10.2126 25.8557H11.429V30.5746ZM16.0008 29.358C16.0008 30.0288 15.455 30.5745 14.7843 30.5745H13.5679V25.8556H14.7843C15.455 25.8557 16.0008 26.4014 16.0008 27.0722V29.358Z" fill="url(#paint1_linear)"/>
<path d="M14.7843 36.2888H7.92676C7.3362 36.2888 6.85742 36.7675 6.85742 37.3582C6.85742 37.9489 7.3362 38.4275 7.92676 38.4275H14.7843C15.3749 38.4275 15.8537 37.9489 15.8537 37.3582C15.8537 36.7675 15.3749 36.2888 14.7843 36.2888Z" fill="url(#paint2_linear)"/>
<path d="M26.214 36.2888H19.3564C18.7659 36.2888 18.2871 36.7675 18.2871 37.3582C18.2871 37.9489 18.7659 38.4275 19.3564 38.4275H26.214C26.8046 38.4275 27.2834 37.9489 27.2834 37.3582C27.2834 36.7675 26.8046 36.2888 26.214 36.2888Z" fill="url(#paint3_linear)"/>
<path d="M30.7852 42.0032H7.92676C7.3362 42.0032 6.85742 42.4818 6.85742 43.0725C6.85742 43.6632 7.3362 44.1418 7.92676 44.1418H30.7853C31.3759 44.1418 31.8546 43.6632 31.8546 43.0725C31.8546 42.4818 31.3759 42.0032 30.7852 42.0032Z" fill="url(#paint4_linear)"/>
<path d="M37.6437 36.2888H30.7861C30.1956 36.2888 29.7168 36.7675 29.7168 37.3582C29.7168 37.9489 30.1956 38.4275 30.7861 38.4275H37.6437C38.2343 38.4275 38.713 37.9489 38.713 37.3582C38.713 36.7675 38.2343 36.2888 37.6437 36.2888Z" fill="url(#paint5_linear)"/>
<path d="M49.0714 36.2888H42.2139C41.6233 36.2888 41.1445 36.7675 41.1445 37.3582C41.1445 37.9489 41.6233 38.4275 42.2139 38.4275H49.0714C49.662 38.4275 50.1408 37.9489 50.1408 37.3582C50.1408 36.7675 49.662 36.2888 49.0714 36.2888Z" fill="url(#paint6_linear)"/>
<path d="M44.501 18.002C42.6216 18.002 40.955 18.9267 39.9294 20.3441C38.9037 18.9266 37.2371 18.002 35.3578 18.002C32.2473 18.002 29.7168 20.5324 29.7168 23.6429C29.7168 26.7534 32.2474 29.2839 35.3578 29.2839C37.2372 29.2839 38.9038 28.3591 39.9294 26.9417C40.9551 28.3593 42.6217 29.2839 44.501 29.2839C47.6115 29.2839 50.142 26.7534 50.142 23.6429C50.142 20.5324 47.6115 18.002 44.501 18.002ZM35.3576 27.1452C33.4264 27.1452 31.8553 25.574 31.8553 23.6429C31.8553 21.7118 33.4265 20.1406 35.3576 20.1406C37.2887 20.1406 38.8599 21.7118 38.8599 23.6429C38.8599 25.574 37.2888 27.1452 35.3576 27.1452ZM44.501 27.1452C42.5698 27.1452 40.9987 25.574 40.9987 23.6429C40.9987 21.7118 42.5699 20.1406 44.501 20.1406C46.4321 20.1406 48.0033 21.7118 48.0033 23.6429C48.0033 25.574 46.4322 27.1452 44.501 27.1452Z" fill="url(#paint7_linear)"/>
<circle cx="44.4844" cy="23.6484" r="5.70312" fill="url(#paint8_linear)"/>
<path d="M68.5011 0.858154H20.4982C18.0179 0.858154 16 2.87592 16 5.35621V7.64202C16 8.23272 16.4788 8.71136 17.0693 8.71136H70.8605V13.4304H60.5006C59.9101 13.4304 59.4313 13.909 59.4313 14.4997C59.4313 15.0904 59.9101 15.5691 60.5006 15.5691H70.8605V37.3582C70.8605 38.6592 69.8021 39.7175 68.5011 39.7175H60.5003C59.9098 39.7175 59.431 40.1962 59.431 40.7869C59.431 41.3776 59.9098 41.8562 60.5003 41.8562H68.5011C70.9814 41.8562 72.9992 39.8384 72.9992 37.3582V5.35621C72.9992 2.87606 70.9814 0.858154 68.5011 0.858154ZM70.8605 6.57269H18.1388V5.35621C18.1388 4.05533 19.1973 2.99683 20.4983 2.99683H68.5011C69.8021 2.99683 70.8605 4.05533 70.8605 5.35621V6.57269Z" fill="url(#paint9_linear)"/>
<rect x="6.84375" y="23.6489" width="11.2637" height="9.125" rx="1" fill="url(#paint10_linear)"/>
<defs>
<linearGradient id="paint0_linear" x1="56.999" y1="31.6435" x2="3.91572e-08" y2="31.6435" gradientUnits="userSpaceOnUse">
<stop stop-color="#4CBA85"/>
<stop offset="1" stop-color="#2569AC"/>
</linearGradient>
<linearGradient id="paint1_linear" x1="18.1393" y1="28.2151" x2="6.85742" y2="28.2151" gradientUnits="userSpaceOnUse">
<stop stop-color="#4CBA85"/>
<stop offset="1" stop-color="#2569AC"/>
</linearGradient>
<linearGradient id="paint2_linear" x1="15.8537" y1="37.3582" x2="6.85742" y2="37.3582" gradientUnits="userSpaceOnUse">
<stop stop-color="#4CBA85"/>
<stop offset="1" stop-color="#2569AC"/>
</linearGradient>
<linearGradient id="paint3_linear" x1="27.2834" y1="37.3582" x2="18.2871" y2="37.3582" gradientUnits="userSpaceOnUse">
<stop stop-color="#4CBA85"/>
<stop offset="1" stop-color="#2569AC"/>
</linearGradient>
<linearGradient id="paint4_linear" x1="31.8546" y1="43.0725" x2="6.85742" y2="43.0725" gradientUnits="userSpaceOnUse">
<stop stop-color="#4CBA85"/>
<stop offset="1" stop-color="#2569AC"/>
</linearGradient>
<linearGradient id="paint5_linear" x1="38.713" y1="37.3582" x2="29.7168" y2="37.3582" gradientUnits="userSpaceOnUse">
<stop stop-color="#4CBA85"/>
<stop offset="1" stop-color="#2569AC"/>
</linearGradient>
<linearGradient id="paint6_linear" x1="50.1408" y1="37.3582" x2="41.1445" y2="37.3582" gradientUnits="userSpaceOnUse">
<stop stop-color="#4CBA85"/>
<stop offset="1" stop-color="#2569AC"/>
</linearGradient>
<linearGradient id="paint7_linear" x1="50.142" y1="23.6429" x2="29.7168" y2="23.6429" gradientUnits="userSpaceOnUse">
<stop stop-color="#4CBA85"/>
<stop offset="1" stop-color="#2569AC"/>
</linearGradient>
<linearGradient id="paint8_linear" x1="50.1875" y1="23.6484" x2="38.7813" y2="23.6484" gradientUnits="userSpaceOnUse">
<stop stop-color="#4CBA85"/>
<stop offset="1" stop-color="#2569AC"/>
</linearGradient>
<linearGradient id="paint9_linear" x1="72.9992" y1="21.3572" x2="16" y2="21.3572" gradientUnits="userSpaceOnUse">
<stop stop-color="#4CBA85"/>
<stop offset="1" stop-color="#2569AC"/>
</linearGradient>
<linearGradient id="paint10_linear" x1="18.1074" y1="28.2114" x2="6.84375" y2="28.2114" gradientUnits="userSpaceOnUse">
<stop stop-color="#4CBA85"/>
<stop offset="1" stop-color="#2569AC"/>
</linearGradient>
</defs>
</svg>

<svg width="73" height="53" fill="none" xmlns="http://www.w3.org/2000/svg"><path d="M52.501 11.145H4.498A4.503 4.503 0 000 15.643v32.002a4.503 4.503 0 004.498 4.498h48.003a4.503 4.503 0 004.498-4.498V15.642a4.503 4.503 0 00-4.498-4.498zm2.36 36.5c0 1.3-1.06 2.359-2.36 2.359H4.498a2.362 2.362 0 01-2.36-2.36v-32a2.362 2.362 0 012.36-2.36h48.003a2.362 2.362 0 012.36 2.36v32.002z" fill="url(#paint0_linear)"/><path d="M14.784 23.717h-4.571a3.359 3.359 0 00-3.356 3.355v2.286a3.359 3.359 0 003.356 3.355h4.571a3.359 3.359 0 003.355-3.355v-2.286a3.359 3.359 0 00-3.355-3.355zm-3.355 6.858h-1.216a1.218 1.218 0 01-1.217-1.217v-2.286c0-.67.546-1.216 1.217-1.216h1.216v4.719zm4.572-1.217c0 .67-.546 1.216-1.217 1.216h-1.216v-4.718h1.216c.671 0 1.217.545 1.217 1.216v2.286z" fill="url(#paint1_linear)"/><path d="M14.784 36.289H7.927a1.07 1.07 0 100 2.139h6.857a1.07 1.07 0 100-2.14z" fill="url(#paint2_linear)"/><path d="M26.214 36.289h-6.858a1.07 1.07 0 000 2.139h6.858a1.07 1.07 0 100-2.14z" fill="url(#paint3_linear)"/><path d="M30.785 42.003H7.927a1.07 1.07 0 100 2.139h22.858a1.07 1.07 0 100-2.139z" fill="url(#paint4_linear)"/><path d="M37.644 36.289h-6.858a1.07 1.07 0 000 2.139h6.858a1.07 1.07 0 100-2.14z" fill="url(#paint5_linear)"/><path d="M49.071 36.289h-6.857a1.07 1.07 0 100 2.139h6.857a1.07 1.07 0 100-2.14z" fill="url(#paint6_linear)"/><path d="M44.501 18.002c-1.88 0-3.546.925-4.572 2.342a5.636 5.636 0 00-4.571-2.342 5.647 5.647 0 00-5.641 5.64 5.647 5.647 0 005.64 5.642c1.88 0 3.547-.925 4.572-2.342a5.636 5.636 0 004.572 2.342c3.11 0 5.641-2.53 5.641-5.641 0-3.11-2.53-5.641-5.641-5.641zm-9.143 9.143a3.506 3.506 0 01-3.503-3.502 3.506 3.506 0 013.503-3.502 3.506 3.506 0 013.502 3.502 3.506 3.506 0 01-3.502 3.502zm9.143 0a3.506 3.506 0 01-3.502-3.502A3.506 3.506 0 0144.5 20.14a3.506 3.506 0 013.502 3.502 3.506 3.506 0 01-3.502 3.502z" fill="url(#paint7_linear)"/><circle cx="44.484" cy="23.648" r="5.703" fill="url(#paint8_linear)"/><path d="M68.501.858H20.498A4.503 4.503 0 0016 5.356v2.286c0 .59.479 1.07 1.07 1.07h53.79v4.718H60.5a1.07 1.07 0 100 2.14h10.36v21.788a2.362 2.362 0 01-2.359 2.36h-8a1.07 1.07 0 000 2.138h8A4.503 4.503 0 0073 37.358V5.356A4.503 4.503 0 0068.501.858zm2.36 5.715H18.139V5.356c0-1.3 1.058-2.36 2.36-2.36H68.5a2.362 2.362 0 012.36 2.36v1.217z" fill="url(#paint9_linear)"/><rect x="6.844" y="23.649" width="11.264" height="9.125" rx="1" fill="url(#paint10_linear)"/><defs><linearGradient id="paint0_linear" x1="56.999" y1="31.643" x2="0" y2="31.643" gradientUnits="userSpaceOnUse"><stop stop-color="#4CBA85"/><stop offset="1" stop-color="#2569AC"/></linearGradient><linearGradient id="paint1_linear" x1="18.139" y1="28.215" x2="6.857" y2="28.215" gradientUnits="userSpaceOnUse"><stop stop-color="#4CBA85"/><stop offset="1" stop-color="#2569AC"/></linearGradient><linearGradient id="paint2_linear" x1="15.854" y1="37.358" x2="6.857" y2="37.358" gradientUnits="userSpaceOnUse"><stop stop-color="#4CBA85"/><stop offset="1" stop-color="#2569AC"/></linearGradient><linearGradient id="paint3_linear" x1="27.283" y1="37.358" x2="18.287" y2="37.358" gradientUnits="userSpaceOnUse"><stop stop-color="#4CBA85"/><stop offset="1" stop-color="#2569AC"/></linearGradient><linearGradient id="paint4_linear" x1="31.855" y1="43.072" x2="6.857" y2="43.072" gradientUnits="userSpaceOnUse"><stop stop-color="#4CBA85"/><stop offset="1" stop-color="#2569AC"/></linearGradient><linearGradient id="paint5_linear" x1="38.713" y1="37.358" x2="29.717" y2="37.358" gradientUnits="userSpaceOnUse"><stop stop-color="#4CBA85"/><stop offset="1" stop-color="#2569AC"/></linearGradient><linearGradient id="paint6_linear" x1="50.141" y1="37.358" x2="41.145" y2="37.358" gradientUnits="userSpaceOnUse"><stop stop-color="#4CBA85"/><stop offset="1" stop-color="#2569AC"/></linearGradient><linearGradient id="paint7_linear" x1="50.142" y1="23.643" x2="29.717" y2="23.643" gradientUnits="userSpaceOnUse"><stop stop-color="#4CBA85"/><stop offset="1" stop-color="#2569AC"/></linearGradient><linearGradient id="paint8_linear" x1="50.188" y1="23.648" x2="38.781" y2="23.648" gradientUnits="userSpaceOnUse"><stop stop-color="#4CBA85"/><stop offset="1" stop-color="#2569AC"/></linearGradient><linearGradient id="paint9_linear" x1="72.999" y1="21.357" x2="16" y2="21.357" gradientUnits="userSpaceOnUse"><stop stop-color="#4CBA85"/><stop offset="1" stop-color="#2569AC"/></linearGradient><linearGradient id="paint10_linear" x1="18.107" y1="28.211" x2="6.844" y2="28.211" gradientUnits="userSpaceOnUse"><stop stop-color="#4CBA85"/><stop offset="1" stop-color="#2569AC"/></linearGradient></defs></svg>
